img/svg/icon_layout_row.svg

<svg width="23" height="19" fill="none" xmlns="http://www.w3.org/2000/svg"><path fill-rule="evenodd" clip-rule="evenodd" d="M0 0h23v3H0V0zm0 8h23v3H0V8zm23 8H0v3h23v-3z" fill="#fff"/></svg>

<svg width="23" height="19" viewBox="0 0 23 19" fill="none" xmlns="http://www.w3.org/2000/svg">
	<path id="2-1" fill-rule="evenodd" clip-rule="evenodd" d="M0 0H23V3H0V0ZM0 8H23V11H0V8ZM23 16H0V19H23V16Z" fill="white" />
</svg>
